!!!COM: Britten, (Edward) Benjamin
!!!OTL: Festival Te Deum for Trumpet, Chorus and Organ, op. 32
!!!OMV:
!!!example: 809
!!!work: Bri-28
!!!OMD-full: Andante con moto
!!!OMD: [Andante con moto]
**kern	**dynam	**kern	**dynam	**kern	**dynam	**kern	**text	**dynam	**kern	**text	**dynam	**kern	**text	**dynam	**kern	**text	**dynam
*grp:A	*grp:A	*grp:A	*grp:A	*grp:A	*grp:A	*grp:B	*grp:B	*grp:B	*grp:B	*grp:B	*grp:B	*grp:B	*grp:B	*grp:B	*grp:B	*grp:B	*grp:B
*I"Pedals	*	*I"	*	*I"Organ	*	*I"Basses	*	*	*I"Tenors	*	*	*I"Altos	*	*	*I"Sopranos	*	*
*I'Ped.	*	*I	*	*I'Org.	*	*I'B.	*	*	*I'T.	*	*	*I'A.	*	*	*I'S.	*	*
*ICklav	*	*ICklav	*	*ICklav	*	*ICvox	*	*	*ICvox	*	*	*ICvox	*	*	*ICvox	*	*
*Iorgan	*	*Iorgan	*	*Iorgan	*	*Ibass	*	*	*Itenor	*	*	*Ialto	*	*	*Isoprn	*	*
*clefF4	*	*clefF4	*	*clefG2	*	*clefF4	*	*	*clefG2	*	*	*clefG2	*	*	*clefG2	*	*
*	*	*	*	*	*	*	*	*	*ITrd7c12	*	*	*	*	*	*	*	*
*k[f#c#g#d#]	*	*k[f#c#g#d#]	*	*k[f#c#g#d#]	*	*k[f#c#g#d#]	*	*	*k[f#c#g#d#]	*	*	*k[f#c#g#d#]	*	*	*k[f#c#g#d#]	*	*
*E:	*	*E:	*	*E:	*	*E:	*	*	*E:	*	*	*E:	*	*	*E:	*	*
*M3/4	*	*M3/4	*	*M3/4	*	*M7/8	*	*	*M7/8	*	*	*M7/8	*	*	*M7/8	*	*
!	!	!	!	!	!	!	!	!LO:DY:t=%s cresc.	!	!	!LO:DY:t=%s cresc.	!	!	!LO:DY:t=%s cresc.	!	!	!LO:DY:t=%s cresc.
2ryy	.	2ryy	.	2ryy	.	8BBL	Ho-	f	8BBL	Ho-	f	8BL	Ho-	f	8BL	Ho-	f
.	.	.	.	.	.	8C#	.	.	8C#	.	.	8c#	.	.	8c#	.	.
.	.	.	.	.	.	8E	.	.	8E	.	.	8e	.	.	8e	.	.
.	.	.	.	.	.	8F#J	.	.	8F#J	.	.	8f#J	.	.	8f#J	.	.
=	=	=	=	=	=	=-	=-	=-	=-	=-	=-	=-	=-	=-	=-	=-	=-
.	.	(16qqE/LL	.	((((16qqbb/LL	.	.	.	.	.	.	.	.	.	.	.	.	.
.	.	16qqF#X/JJ	.	16qaa#X/JJ	.	.	.	.	.	.	.	.	.	.	.	.	.
!	!LO:DY:ed=brack	!	!	!	!LO:DY:ed=brack	!	!	!	!	!	!	!	!	!	!	!	!
(((2.EE	f	2.E 2.G# 2.B)	.	2.ee 2.gg# 2.bb)	f	4.G#)	-ly!	.	4.G#)	-ly!	.	4.g#)	-ly!	.	4.g#)	-ly!	.
=-	=-	=-	=-	=-	=-	=	=	=	=	=	=	=	=	=	=	=	=
.	.	.	.	.	.	(8D#L	Ho-	<	(8D#L	Ho-	<	(8d#L	Ho-	<	(8d#L	Ho-	<
.	.	.	.	.	.	8E	.	.	8E	.	.	8e	.	.	8e	.	.
.	.	.	.	.	.	8G#	.	.	8G#	.	.	8g#	.	.	8g#	.	.
=	=	=	=	=	=	=-	=-	=-	=-	=-	=-	=-	=-	=-	=-	=-	=-
.	.	(16qqE/LL	.	(16qqbb/LL	.	.	.	.	.	.	.	.	.	.	.	.	.
.	.	16qqF#/JJ	.	16qqaa#X/JJ	.	.	.	.	.	.	.	.	.	.	.	.	.
2.EE	.	2.E 2.G# 2.B)	.	2.ee 2.gg# 2.bb)	.	8A#XJ	.	.	8A#XJ	.	.	8a#XJ	.	.	8a#XJ	.	.
.	.	.	.	.	.	4.B)	-ly!	[[	4.B)	-ly!	[[	4.b)	-ly!	[[	4.b)	-ly!	[[
=-	=-	=-	=-	=-	=-	=	=	=	=	=	=	=	=	=	=	=	=
.	.	.	.	.	.	(8G#L	Ho-	<	(8G#L	Ho-	<	(8g#L	Ho-	<	(8g#L	Ho-	<
.	.	.	.	.	.	8A#X	.	.	8A#X	.	.	8a#X	.	.	8a#X	.	.
=	=	=	=	=	=	=-	=-	=-	=-	=-	=-	=-	=-	=-	=-	=-	=-
.	.	(16qqE/LL	.	(16qqbb/LL	.	.	.	.	.	.	.	.	.	.	.	.	.
.	.	16qqF#/JJ	.	16qqaa#X/JJ	.	.	.	.	.	.	.	.	.	.	.	.	.
2.EE	.	2.E 2.G# 2.B)	.	2.ee 2.gg# 2.bb)	.	8c#	.	.	8c#	.	.	8cc#	.	.	8cc#	.	.
.	.	.	.	.	.	8d#J	.	.	8d#J	.	.	8dd#J	.	.	8dd#J	.	.
.	.	.	.	.	.	4.e)	-ly!	[[	4.e)	-ly!	[[	4.ee)	-ly!	[[	4.ee)	-ly!	[[
=-	=-	=-	=-	=-	=-	=	=	=	=	=	=	=	=	=	=	=	=
*	*	*	*	*	*	*M3/4	*	*	*M3/4	*	*	*M3/4	*	*	*M3/4	*	*
.	.	.	.	.	.	4e^	Lord	ff	4e^	Lord	ff	4ee^	Lord	ff	4ee^	Lord	ff
=	=	=	=	=	=	=-	=-	=-	=-	=-	=-	=-	=-	=-	=-	=-	=-
.	.	(16qqE/LL	.	(16qqbb/LL	.	.	.	.	.	.	.	.	.	.	.	.	.
.	.	16qqF#/JJ	.	16qqaa#X/JJ	.	.	.	.	.	.	.	.	.	.	.	.	.
2.EE	.	2.E 2.G# 2.B)	.	2.ee 2.gg# 2.bb)	<	.	.	.	.	.	.	.	.	.	.	.	.
.	.	.	.	.	.	4e^	God	.	4e^	God	.	4ee^	God	.	4ee^	God	.
.	.	.	.	.	[[	4e^	of	.	4e^	of	.	4ee^	of	.	4ee^	of	.
=-	=-	=-	=-	=-	=-	=	=	=	=	=	=	=	=	=	=	=	=
*	*	*	*	*	*	*M11/8	*	*	*M11/8	*	*	*M11/8	*	*	*M11/8	*	*
.	.	.	.	.	.	(4.e^	Sa-	.	(4.e^	Sa-	.	(4.ee^	Sa-	.	(4.ee^	Sa-	.
=	=	=	=	=	=	=-	=-	=-	=-	=-	=-	=-	=-	=-	=-	=-	=-
.	.	(16qqEn/LL	.	(16qqcccn/LL	.	.	.	.	.	.	.	.	.	.	.	.	.
!	!	!	!	!	!	!	!	!	!	!	!	!	!	!	!	!	!
.	.	16qqF#X/JJ	.	16qqbb-X/JJ	.	.	.	.	.	.	.	.	.	.	.	.	.
2.EE	.	2.E 2.A-X 2.cn)	.	2.ee-X 2.aa-X 2.ccc)	ff	.	.	.	.	.	.	.	.	.	.	.	.
!	!	!	!	!	!LO:HP:t=%s subito	!	!	!	!	!	!	!	!	!	!	!	!
.	.	.	.	.	>	8Cn)	-ba-	.	8C)	-ba-	.	8cn)	-ba-	.	8cn)	-ba-	.
.	.	.	.	.	.	[4.C	-oth!	>	[4.C	-oth!	>	[4.c	-oth!	>	[4.c	-oth!	>
=	=	=	=	=	=	=-	=-	=-	=-	=-	=-	=-	=-	=-	=-	=-	=-
.	.	(16qqEn/LL	.	(16qqcccn/LL	.	.	.	.	.	.	.	.	.	.	.	.	.
.	.	16qqF#X/JJ	.	16qqbb-X/JJ	.	.	.	.	.	.	.	.	.	.	.	.	.
2.EEi	.	2.E 2.A-X 2.cn)	.	2.ee-X 2.aa-X 2.ccc)	>	4C]	.	]]	4C]	.	]]	4c]	.	]]	4c]	.	]]
.	.	.	.	.	]]	4r	.	.	4r	.	.	4r	.	.	4r	.	.
=-	=-	=-	=-	=-	=-	=	=	=	=	=	=	=	=	=	=	=	=
*	*	*	*	*	*	*M7/8	*	*	*M7/8	*	*	*M7/8	*	*	*M7/8	*	*
.	.	.	.	.	.	8Cn	Heav'n	pp	8C	Heav'n	pp	8cn	Heav'n	pp	8cn	Heav'n	pp
.	.	.	.	.	.	8C	and	.	8C	and	.	8c	and	.	8c	and	.
=	=	=	=	=	=	=-	=-	=-	=-	=-	=-	=-	=-	=-	=-	=-	=-
.	.	(16qqEn/LL	.	(16qqcccn/LL	.	.	.	.	.	.	.	.	.	.	.	.	.
.	.	16qqF#X/JJ	.	16qqbb-X/JJ	.	.	.	.	.	.	.	.	.	.	.	.	.
2.EEi	.	2.E 2.A-X 2.cn)	.	2.ee-X 2.aa-X 2.ccc)	ppp	8C	earth	.	8C	earth	.	8c	earth	.	8c	earth	.
.	.	.	.	.	.	8Dn	are	.	8D	are	.	8dn	are	.	8dn	are	.
.	.	.	.	.	.	8E-X	full	.	8E-X	full	.	8e-X	full	.	8e-X	full	.
.	.	.	.	.	.	8D	of	.	8D	of	.	8d	of	.	8d	of	.
.	.	.	.	.	.	8C	the	.	8C	the	.	8c	the	.	8c	the	.
=-	=-	=-	=-	=-	=-	=	=	=	=	=	=	=	=	=	=	=	=
*	*	*	*	*	*	*M5/8	*	*	*M5/8	*	*	*M5/8	*	*	*M5/8	*	*
.	.	.	.	.	.	8Gn	ma-	.	8G	ma-	.	8gn	ma-	.	8gn	ma-	.
=	=	=	=	=	=	=-	=-	=-	=-	=-	=-	=-	=-	=-	=-	=-	=-
.	.	(16qqEn/LL	.	(16qqcccn/LL	.	.	.	.	.	.	.	.	.	.	.	.	.
.	.	16qqF#X/JJ	.	16qqbb-X/JJ	.	.	.	.	.	.	.	.	.	.	.	.	.
2.EEi	.	2.E 2.A-X 2.cn)	.	2.ee-X 2.aa-X 2.ccc)	.	8G	-jes-	.	8G	-jes-	.	8g	-jes-	.	8g	-jes-	.
.	.	.	.	.	.	8G	-ty	.	8G	-ty	.	8g	-ty	.	8g	-ty	.
.	.	.	.	.	.	8Fn	of	.	8F	of	.	8fn	of	.	8fn	of	.
.	.	.	.	.	.	8E-X	Thy	.	8E-X	Thy	.	8e-X	Thy	.	8e-X	Thy	.
=-	=-	=-	=-	=-	=-	=	=	=	=	=	=	=	=	=	=	=	=
*	*	*	*	*	*	*M2/4	*	*	*M2/4	*	*	*M2/4	*	*	*M2/4	*	*
.	.	.	.	.	.	4Cn	Glo-	>	4C	Glo-	>	4cn	Glo-	>	4cn	Glo-	>
=	=	=	=	=	=	=-	=-	=-	=-	=-	=-	=-	=-	=-	=-	=-	=-
.	.	(16qqEn/LL	.	(16qqcccn/LL	.	.	.	.	.	.	.	.	.	.	.	.	.
.	.	16qqF#X/JJ	.	16qqdddn/JJ	.	.	.	.	.	.	.	.	.	.	.	.	.
2.CCn	.	2.E 2.Gn 2.cn)	.	2.een 2.ggn 2.ccc)	.	4C	-ry.	]]	4C	-ry.	]]	4c	-ry.	]]	4c	-ry.	]]
=-	=-	=-	=-	=-	=-	=	=	=	=	=	=	=	=	=	=	=	=
.	.	.	.	.	.	2r	.	.	2r	.	.	2r	.	.	2r	.	.
.	.	.	.	.	.	.	.	.	.	.	.	.	.	.	.	.	.
=	=	=	=	=	=	=	=	=	=	=	=	=	=	=	=	=	=
*-	*-	*-	*-	*-	*-	*-	*-	*-	*-	*-	*-	*-	*-	*-	*-	*-	*-
!!!system-decoration: [(s1,s2,s3,s4)][({(s5,s6)})]s7,s8
!!!RDF**kern: i = editorial accidental, paren
!!!RDF**dynam: > = dim.
!!!CDT: 1913/11/22-1976/12/04
!!!CBL: Lowestoft, England
!!!CDL: Aldeburgh, England
!!!CNT: English
!!!AGN: Vocal; Choral
!!!MCN: Gale, J., J.
!!!MDT: 1945/04/24
!!!MGN: Choir of St. Mark’s
!!!MLC: Swindon, United Kingdom
!!!MPD: 1945
!!!MPN: Curnow, Gustavos; Titcombe, Peter
!!!ODT: 1944
!!!PDT: 1945
!!!excerpt-start-measure: 22
!!!excerpt-end-measure: 30
!!!excerpt-start-time: 0:55
!!!excerpt-end-time: 1:26
!!!excerpt-duration-sec: 31
!!!excerpt-time-signature: 7/8;3/4
!!!excerpt-tempo-beat: [eighth]
!!!excerpt-tempo-rate: [144]
!!!excerpt-meter-type: polymetric
!!!excerpt-beat-group: G3
!!!excerpt-beat-subgroup: G3,G2;G2
!!!experiment: 1
!!!EEV: 2021/06/18
!!!ONB: Converted from MusicXML on 2020/07/28
